Breeze Round Dark/places/22/folder-tar.svg

<?xml version="1.0" encoding="UTF-8" standalone="no"?>
<svg
   viewBox="0 0 22 22"
   version="1.1"
   id="svg1"
   xmlns="http://www.w3.org/2000/svg"
   xmlns:svg="http://www.w3.org/2000/svg">
  <defs
     id="defs3051">
    <style type="text/css" id="current-color-scheme"> .ColorScheme-Text { color:#eff0f1; } </style>
  </defs>
    <path
       class="ColorScheme-Text"
       d="m 10,4 v 1 h 1 V 4 Z m 1,1 v 1 h 1 V 5 Z m 0,1 h -1 v 1 h 1 z m 0,1 v 1 h 1 V 7 Z m 0,1 h -1 v 1 h 1 z m 0,1 v 1 h 1 V 9 Z m 0,1 h -1 v 1 h 1 z m 0,1 v 1 h 1 v -1 z m 0,1 h -1 v 2 h 2 v -1 h -1 z"
       id="path1"
       style="fill:currentColor;fill-opacity:1" />
    <path
       class="ColorScheme-Text"
       d="M 6,3 C 4.338,3 3,4.338 3,6 v 10 c 0,1.662 1.338,3 3,3 h 10 c 1.662,0 3,-1.338 3,-3 V 6 C 19,4.338 17.662,3 16,3 Z m 0,1 h 10 c 1.108,0 2,0.892 2,2 v 10 c 0,1.108 -0.892,2 -2,2 H 6 C 4.892,18 4,17.108 4,16 V 6 C 4,4.892 4.892,4 6,4 Z"
       id="path2"
       style="fill:currentColor;fill-opacity:1" />
</svg>

<svg xmlns="http://www.w3.org/2000/svg" viewBox="0 0 22 22">
  <defs id="defs3051">
    <style type="text/css" id="current-color-scheme">
      .ColorScheme-Text {
        color:#eff0f1;
      }
      </style>
  </defs>
    <path
       style="opacity:1;fill:currentColor;fill-opacity:1;stroke:none" 
       d="M 3 3 L 3 19 L 19 19 L 19 3 L 3 3 z M 4 4 L 10 4 L 10 5 L 11 5 L 11 4 L 18 4 L 18 18 L 4 18 L 4 4 z M 11 5 L 11 6 L 12 6 L 12 5 L 11 5 z M 11 6 L 10 6 L 10 7 L 11 7 L 11 6 z M 11 7 L 11 8 L 12 8 L 12 7 L 11 7 z M 11 8 L 10 8 L 10 9 L 11 9 L 11 8 z M 11 9 L 11 10 L 12 10 L 12 9 L 11 9 z M 11 10 L 10 10 L 10 11 L 11 11 L 11 10 z M 11 11 L 11 12 L 12 12 L 12 11 L 11 11 z M 11 12 L 10 12 L 10 13 L 10 14 L 11 14 L 12 14 L 12 13 L 11 13 L 11 12 z "
        class="ColorScheme-Text"
       id="path4867" />
</svg>
